Sources/FrostedUI/Resources/Icons.xcassets/timeSkipLeft12.imageset/time-skip-left-12.svg

<svg width="12" height="12" viewBox="0 0 12 12" fill="none" xmlns="http://www.w3.org/2000/svg" data-fui-icon="true">
  <path
    d="M6.04297 0.75C4.26538 0.75 3.03606 1.50055 2.25 2.44629V2C2.24999 1.5858 1.91421 1.25 1.5 1.25C1.08579 1.25 0.75001 1.5858 0.75 2V4.5293C0.750242 5.22329 1.30981 5.79785 2.01465 5.79785H3.5C3.91421 5.79785 4.25 5.46207 4.25 5.04785C4.24988 4.63374 3.91414 4.29785 3.5 4.29785H2.85938C3.27797 3.29709 4.26129 2.25 6.04297 2.25C8.3273 2.25005 9.75 3.9455 9.75 6C9.75 8.0545 8.3273 9.74994 6.04297 9.75C4.67474 9.75 3.54036 9.03966 2.90137 8.08301C2.67127 7.73867 2.20475 7.64594 1.86035 7.87598C1.51602 8.10608 1.42328 8.57259 1.65332 8.91699C2.54941 10.2585 4.13668 11.25 6.04297 11.25C9.24422 11.2499 11.25 8.79158 11.25 6C11.25 3.20842 9.24422 0.750057 6.04297 0.75ZM6 3.75C5.58579 3.75 5.25 4.08579 5.25 4.5V6C5.25 6.14915 5.29445 6.29372 5.37598 6.41602L5.46973 6.53027L6.46973 7.53027C6.76262 7.82317 7.23738 7.82317 7.53027 7.53027C7.82317 7.23738 7.82317 6.76262 7.53027 6.46973L6.75 5.68945V4.5C6.75 4.08579 6.41421 3.75 6 3.75Z"
    fill="currentColor"
  />
</svg>

<svg xmlns="http://www.w3.org/2000/svg" width="12" height="12" fill="none" data-fui-icon="true" viewBox="0 0 12 12"><path fill="currentColor" d="M6.043.75c-1.778 0-3.007.75-3.793 1.696V2a.75.75 0 0 0-1.5 0v2.53c0 .693.56 1.268 1.265 1.268H3.5a.75.75 0 1 0 0-1.5h-.64c.418-1 1.401-2.048 3.183-2.048C8.327 2.25 9.75 3.946 9.75 6S8.327 9.75 6.043 9.75a3.77 3.77 0 0 1-3.142-1.667.751.751 0 0 0-1.248.834 5.27 5.27 0 0 0 4.39 2.333c3.201 0 5.207-2.458 5.207-5.25S9.244.75 6.043.75M6 3.75a.75.75 0 0 0-.75.75V6c0 .15.044.294.126.416l.094.114 1 1a.75.75 0 1 0 1.06-1.06l-.78-.78V4.5A.75.75 0 0 0 6 3.75"/></svg>
